X: 32934
T: Premier, The
R: reel
M: 4/4
K: Gmajor
|:E|DG~G2 DGBG|EA~A2 EAcA|BGBd g2fg|egdB AGEG|
DG~G2 DGBG|EA~A2 EAcA|Bdgd edBG|FGAF G3:|
|:B|d2Be dGBd|gfgd efge|dB~B2 GBdB|A2GB ABcA|
BddB dega|bg~g2 agef|gfgd edBG|FGAF G3:|
|:B|dg~g2 egdB|GBdB BAAB|dg~g2 edBd|(3efg fa g3a|
bg~g2 egdB|c2AG FGAc|dg~g2 edBG|FGAF G3:|

